svg/700/rounded/format_align_center-fill.svg

<svg xmlns="http://www.w3.org/2000/svg" width="48" height="48" viewBox="0 -960 960 960"><path d="M138-95q-17.625 0-30.312-12.763Q95-120.526 95-138.263 95-156 107.688-169q12.687-13 30.312-13h684q18.05 0 31.025 12.965Q866-156.07 866-138.035T853.025-107.5Q840.05-95 822-95H138Zm160-171q-17.625 0-30.312-12.763Q255-291.526 255-309.263 255-327 267.688-340q12.687-13 30.312-13h364q18.05 0 31.025 12.965Q706-327.07 706-309.035T693.025-278.5Q680.05-266 662-266H298ZM138-437q-17.625 0-30.312-12.763Q95-462.526 95-480.263 95-498 107.688-511q12.687-13 30.312-13h684q18.05 0 31.025 12.965Q866-498.07 866-480.035T853.025-449.5Q840.05-437 822-437H138Zm160-171q-17.625 0-30.312-12.763Q255-633.526 255-651.263 255-669 267.688-682q12.687-13 30.312-13h364q18.05 0 31.025 12.965Q706-669.07 706-651.035T693.025-620.5Q680.05-608 662-608H298ZM138-779q-17.625 0-30.312-12.763Q95-804.526 95-822.263 95-840 107.688-853q12.687-13 30.312-13h684q18.05 0 31.025 12.965Q866-840.07 866-822.035T853.025-791.5Q840.05-779 822-779H138Z"/></svg>

<svg xmlns="http://www.w3.org/2000/svg" width="48" height="48" viewBox="0 -960 960 960"><path d="M138-95q-17.62 0-30.31-12.76Q95-120.53 95-138.26 95-156 107.69-169T138-182h684q18.05 0 31.03 12.96 12.97 12.97 12.97 31 0 18.04-12.97 30.54Q840.05-95 822-95H138Zm160-171q-17.62 0-30.31-12.76Q255-291.53 255-309.26 255-327 267.69-340T298-353h364q18.05 0 31.03 12.96 12.97 12.97 12.97 31 0 18.04-12.97 30.54Q680.05-266 662-266H298ZM138-437q-17.62 0-30.31-12.76Q95-462.53 95-480.26 95-498 107.69-511T138-524h684q18.05 0 31.03 12.96 12.97 12.97 12.97 31 0 18.04-12.97 30.54Q840.05-437 822-437H138Zm160-171q-17.62 0-30.31-12.76Q255-633.53 255-651.26 255-669 267.69-682T298-695h364q18.05 0 31.03 12.96 12.97 12.97 12.97 31 0 18.04-12.97 30.54Q680.05-608 662-608H298ZM138-779q-17.62 0-30.31-12.76Q95-804.53 95-822.26 95-840 107.69-853T138-866h684q18.05 0 31.03 12.96 12.97 12.97 12.97 31 0 18.04-12.97 30.54Q840.05-779 822-779H138Z"/></svg>
